symbolic/16x16/apps/openshot-qt.svg

<svg xmlns="http://www.w3.org/2000/svg" width="16" height="16" version="1.1">
 <path style="fill:#3168b2" d="M 8,0 C 3.581722,0 0,3.581722 0,8 c 0,3.439337 2.1703779,6.371756 5.2162408,7.502362 0.8669456,0.321806 1.6754384,-0.947106 2.6543792,-0.947106 4.418278,0 7.396226,-2.093851 7.396226,-6.5121292 0,-3.563594 -1.72626,-5.7851359 -4.945957,-6.8199424 C 10.200134,1.1843741 10.207509,0.30738504 10.084328,0.27423388 9.4197848,0.09538824 8.721032,0 8,0 Z"/>
 <path style="fill:#b2bfd9" d="M 10.028906,0.26640624 C 8.7369996,0.99640264 5.7330116,3.0945656 6,4.9421876 c 0.369458,2.5567332 4.842507,2.1241412 5,4.125 C 11.204461,11.664746 7.3070268,14.297862 5.0695312,15.442188 6.0027412,15.810213 6.9968434,15.99944 8,16 c 4.418278,0 8,-3.581722 8,-8 -0.0022,-3.6350637 -2.454875,-6.8116939 -5.971094,-7.73359376 z"/>
 <path style="fill:#3c3c3c" d="M 1.7636719 3 A 8 8 0 0 0 0.58984375 5 L 2 5 L 2 11 L 0.60742188 11 C 0.61331221 11.014432 0.62098484 11.066275 0.62695312 11.083984 A 8 8 0 0 0 1.7558594 13 L 3.1992188 13 L 7.1992188 13 L 8.8007812 13 L 12.800781 13 L 14.236328 13 A 8 8 0 0 0 14.597656 12.5 L 14 12.5 L 14 11.5 L 15 11.5 L 15 11.845703 A 8 8 0 0 0 15.410156 11 L 14 11 L 14 5 L 15.408203 5 C 15.407242 4.9976348 15.405261 4.9887861 15.404297 4.9863281 A 8 8 0 0 0 15 4.1464844 L 15 4.5 L 14 4.5 L 14 3.5 L 14.607422 3.5 A 8 8 0 0 0 14.244141 3 L 1.7636719 3 z M 2 3.5 L 3 3.5 L 3 4.5 L 2 4.5 L 2 3.5 z M 4 3.5 L 5 3.5 L 5 4.5 L 4 4.5 L 4 3.5 z M 6 3.5 L 7 3.5 L 7 4.5 L 6 4.5 L 6 3.5 z M 8 3.5 L 9 3.5 L 9 4.5 L 8 4.5 L 8 3.5 z M 10 3.5 L 11 3.5 L 11 4.5 L 10 4.5 L 10 3.5 z M 12 3.5 L 13 3.5 L 13 4.5 L 12 4.5 L 12 3.5 z M 4 5 L 7 5 L 7 11 L 4 11 L 4 5 z M 9 5 L 12 5 L 12 11 L 9 11 L 9 5 z M 2 11.5 L 3 11.5 L 3 12.5 L 2 12.5 L 2 11.5 z M 4 11.5 L 5 11.5 L 5 12.5 L 4 12.5 L 4 11.5 z M 6 11.5 L 7 11.5 L 7 12.5 L 6 12.5 L 6 11.5 z M 8 11.5 L 9 11.5 L 9 12.5 L 8 12.5 L 8 11.5 z M 10 11.5 L 11 11.5 L 11 12.5 L 10 12.5 L 10 11.5 z M 12 11.5 L 13 11.5 L 13 12.5 L 12 12.5 L 12 11.5 z"/>
</svg>

<svg xmlns="http://www.w3.org/2000/svg" width="16" height="16"><path style="fill:#3168b2" d="M8 0a8 8 0 0 0-2.784 15.502c.867.322 1.676-.947 2.655-.947 4.418 0 7.396-2.094 7.396-6.512 0-3.563-1.726-5.785-4.946-6.82-.12-.039-.113-.916-.237-.949A8.01 8.01 0 0 0 8 0z"/><path style="fill:#b2bfd9" d="M10.029.266C8.737.996 5.733 3.095 6 4.942c.37 2.557 4.843 2.124 5 4.125.204 2.598-3.693 5.23-5.93 6.375A8 8 0 0 0 16 8 8 8 0 0 0 10.029.266z"/><path style="fill:#3c3c3c" d="M1.764 3A8 8 0 0 0 .59 5H2v6H.607c.006.014.014.066.02.084A8 8 0 0 0 1.756 13h12.48a8 8 0 0 0 .362-.5H14v-1h1v.346a8 8 0 0 0 .41-.846H14V5h1.408l-.004-.014a8 8 0 0 0-.404-.84V4.5h-1v-1h.607a8 8 0 0 0-.363-.5H1.764zM2 3.5h1v1H2v-1zm2 0h1v1H4v-1zm2 0h1v1H6v-1zm2 0h1v1H8v-1zm2 0h1v1h-1v-1zm2 0h1v1h-1v-1zM4 5h3v6H4V5zm5 0h3v6H9V5zm-7 6.5h1v1H2v-1zm2 0h1v1H4v-1zm2 0h1v1H6v-1zm2 0h1v1H8v-1zm2 0h1v1h-1v-1zm2 0h1v1h-1v-1z"/></svg>
